images/bbmc_logo.svg

<svg height="20" viewBox="0 0 194 20" width="194" xmlns="http://www.w3.org/2000/svg" xmlns:xlink="http://www.w3.org/1999/xlink"><linearGradient id="a" x1="50%" x2="50%" y1="0%" y2="100%"><stop offset="0" stop-color="#333"/><stop offset="1" stop-color="#333"/></linearGradient><path d="m718.74026 99.9835735c1.499032-2.0291789 2.873162-3.8909782 4.249191-5.75184 2.313952-3.1295934 4.615668-6.2666861 6.957786-9.3789895.362047-.4810994.384305-.8025266.004326-1.2805013-.884334-1.11208-1.69187-2.2737386-2.641714-3.566947h.894461c7.719645 0 15.439184-.0018748 23.158829.0016665 1.77869.000625 3.427519.313928 4.625585 1.723271 1.827426-1.5067294 4.04074-1.737957 6.348679-1.7300411 4.880557.016665 9.761325-.0156235 14.641565.0204147 1.170743.0086449 2.368913.0957199 3.503789.3390297 2.536645.5438016 3.190797 2.0942768 1.758013 4.0574204-2.853646 3.9093097-5.74126 7.7982048-8.61495 11.6955365-.828529 1.1236414-1.646509 2.2538447-2.49698 3.3640499-.160874.2099797-.450237.4813077-.683478.4839116-3.081824.0321844-6.164281.0213521-9.392105.0213521.254234-.3701726.423548-.6326472.60974-.8850187 3.069481-4.1590772 6.141495-8.3168004 9.212242-12.4752528.158765-.2149792.327762-.4253755.467327-.6502496.589169-.9492833.273117-1.6405707-.923893-1.6760881-2.89943-.0859292-5.803079-.0808255-8.704091-.0496827-.297907.0032289-.663857.3847545-.873784.6660815-3.557379 4.7630814-7.106635 9.5313706-10.621923 14.3197621-.419434.5715072-.862814.7787793-1.615284.7681549-2.83202-.039892-5.665306-.015936-8.688688-.015936.253496-.3673603.419961-.6236897.602566-.870645 3.073069-4.15689 6.148985-8.3122176 9.220998-12.4699408.228916-.3097617.457727-.6236897.640438-.9563659.34348-.6247313.073739-1.0739587-.605098-1.2940416-.380718-.1234256-.811018-.1671714-1.219375-.1696711-2.583693-.0158318-5.168126-.0355174-7.75087.0171858-.373967.0078117-.863763.3217397-1.088565.6220232-3.59525 4.8092228-7.166238 9.6333399-10.710219 14.4733931-.363734.4966186-.741499.6674357-1.384257.6608736-2.894155-.0294763-5.788943-.0129154-8.880261-.0129154zm-95.74026-.0897048c2.470772-3.3359836 4.896904-6.6117984 7.323142-9.8874046 1.275742-1.7226861 2.527366-3.4600755 3.842248-5.1581517.376588-.4863565.36199-.811185-.011636-1.2825252-.883287-1.1141149-1.694325-2.2742168-2.641823-3.561643h1.008535c9.086755.0001042 18.173616-.0178317 27.260054.0201258 1.327365.005631 2.694398.1433833 3.970563.457784 2.095032.5162844 2.632515 1.8592913 1.498628 3.5096079-.956701 1.3927479-1.967669 2.7603645-3.041683 4.08189-.973838 1.1979551-2.494574 1.6500037-3.996375 2.0791111-.33311.0952065-.681348.1477631-1.048943.2256593.569218.3513154 1.165305.6455902 1.659205 1.0425797.656912.5278593.929198 1.2505115.401552 1.9381261-1.121722 1.4613633-2.220807 2.95912-3.542248 4.2679234-1.591716 1.5762786-3.753496 2.3276075-6.105051 2.3406423-8.766339.0485942-17.533207.0275297-26.299757.0296152-.054478-.0001043-.108957-.0392088-.276411-.1033403zm13.193673-4.6006771c3.480682 0 6.736893.0152247 9.99268-.0064653 1.655609-.0107407 2.705717-.8631158 3.428532-2.1289564.417631-.731203.202257-1.2239204-.685685-1.414125-.308146-.0661128-.634063-.088637-.952047-.0894712-2.813615-.0076124-5.62723-.0139734-8.440739.0059439-.280113.0020855-.672568.1075114-.819183.2903122-.835897 1.0424753-1.612873 2.1230124-2.523558 3.3427618zm5.900044-7.9009975c3.441331 0 6.699128.0405645 9.953541-.0331607.674895-.0152247 1.470065-.3254541 1.968409-.7362084.486707-.4011606.988859-1.1495697.900953-1.6649156-.127574-.7474706-1.132935-.7137885-1.853634-.7217137-2.685512-.0289895-5.37187-.0265911-8.057593-.0057353-.269959.0021898-.637872.1454689-.789988.3342136-.708428.8782362-1.356772 1.7955769-2.121688 2.8275201zm51.610993 2.9915494c.578907.3645136 1.198151.6732449 1.70316 1.0929151.655664.5449979.824 1.2693331.309992 1.955507-.962269 1.2850772-1.903575 2.5983062-3.023169 3.7691079-1.732063 1.8113072-4.039856 2.7547051-6.687922 2.7689895-8.741835.047024-17.483987.0238769-26.226034.0251281-.0559 0-.112012-.0350333-.248269-.0804933.181993-.2719254.344189-.5384291.530735-.7903355 3.527648-4.7607809 7.048733-9.5257325 10.602002-14.2712906.363352-.4851492.377645-.8058711-.001164-1.2816364-.886253-1.1137684-1.697231-2.2756033-2.648701-3.5672492h1.09662c9.030336 0 18.060883-.0183508 27.090901.020019 1.36077.0057346 2.76156.1383609 4.070453.4558505 2.10092.509756 2.643831 1.857497 1.512167 3.5048982-.956657 1.3928882-1.969956 2.759397-3.043391 4.0819057-.973385 1.1994749-2.494551 1.6517804-3.996872 2.0830241-.350012.1006166-.714423.1614036-1.040508.2336599zm-20.980192 4.8748478c3.537283 0 6.885267.0223129 10.23251-.010218 1.512908-.0147015 2.42944-.8663454 3.113266-1.9941896.514961-.84935.276431-1.3688027-.782498-1.5374007-.28236-.0450429-.572979-.0649576-.859891-.065479-2.783899-.0056303-5.56801-.01491-8.351698.009801-.302475.0027109-.719187.1365883-.883923.3395941-.8258 1.0178437-1.585325 2.0788534-2.467766 3.2578922zm5.967358-7.8910517c3.432364 0 6.78056.0375357 10.12685-.0197063 1.221231-.0209574 2.023316-.7565533 2.572473-1.710065.320262-.5564671.155949-.9694643-.466259-1.1725743-.441274-.1438869-.930719-.223129-1.400684-.2316788-1.631485-.0298201-3.263922-.0251281-4.895936-.0158484-1.212126.0068815-2.66744-.3241627-3.571162.160778-1.01891.5469789-1.541599 1.839876-2.279208 2.8087148-.017469.0226257-.025197.0512988-.086074.18038zm138.308124-7.3150864c-1.023924 1.3756965-1.947576 2.6700772-2.950816 3.9113942-.163479.2021428-.679851.2350861-1.033689.2365456-3.779551.0159504-7.559208.0062551-11.338865.0137611-.666096.0013553-1.334188.0284606-1.997345.0822541-1.094376.0883006-2.065067.4837247-2.68654 1.3054313-2.381631 3.1505703-4.716854 6.3300181-7.224795 9.7077514h1.182153c3.97012 0 7.940345.0118846 11.910465-.0119889.633443-.0038573 1.042824.1387581 1.392041.6475031.903913 1.3159607 1.876389 2.5934528 2.886874 3.9757171-.30932.0306498-.538002.0731843-.766893.0733928-7.5275.0032318-15.055105.017723-22.582395-.0166802-.932577-.0043785-1.910302-.156585-2.785551-.4442136-1.676581-.5507582-2.192113-1.7883221-1.495148-3.2672272.173034-.3673806.395101-.7218341.639113-1.0553331 2.69746-3.6902778 5.39471-7.3810769 8.112329-11.0591574 1.239166-1.676982 2.722974-3.1327433 4.936611-3.7410481.839865-.2307075 1.741573-.3838522 2.616193-.387918 6.860248-.0325264 13.720916-.0205375 20.581374-.0202247.14563 0 .291785.0234564.604884.0500405zm-94.480519 6.2427707c-1.032283 1.6741044-1.933657 3.1621835-2.871639 4.6242016-.116565.1815578-.427299.3162059-.648334.3169505-5.889813.0170016-11.77984.0132786-17.895612.0132786.708276-1.1425855 1.438709-2.0928166 1.928519-3.1659064.687511-1.5069421 1.696566-1.8637287 3.229683-1.8318351 5.336422.1118138 10.675949.0433108 16.257383.0433108z" fill="url(#a)" transform="translate(-623 -80)"/></svg>

<svg width="194px" height="20px" viewBox="0 0 194 20" version="1.1" xmlns="http://www.w3.org/2000/svg" xmlns:xlink="http://www.w3.org/1999/xlink">
    <defs>
        <linearGradient x1="50%" y1="0%" x2="50%" y2="100%" id="linearGradient-1">
            <stop stop-color="#333" offset="0%"></stop>
            <stop stop-color="#333" offset="100%"></stop>
        </linearGradient>
    </defs>
    <g id="Explorations" stroke="none" stroke-width="1" fill="none" fill-rule="evenodd">
        <g id="Desktop-HD-Copy-10" transform="translate(-623.000000, -80.000000)" fill="url(#linearGradient-1)" fill-rule="nonzero">
            <path d="M718.74026,99.9835735 C720.239292,97.9543946 721.613422,96.0925953 722.989451,94.2317335 C725.303403,91.1021401 727.605119,87.9650474 729.947237,84.852744 C730.309284,84.3716446 730.331542,84.0502174 729.951563,83.5722427 C729.067229,82.4601627 728.259693,81.2985041 727.309849,80.0052957 C727.730548,80.0052957 727.967482,80.0052957 728.20431,80.0052957 C735.923955,80.0052957 743.643494,80.0034209 751.363139,80.0069622 C753.141829,80.0075872 754.790658,80.3208902 755.988724,81.7302332 C757.81615,80.2235038 760.029464,79.9922762 762.337403,80.0001921 C767.21796,80.0168571 772.098728,79.9845686 776.978968,80.0206068 C778.149711,80.0292517 779.347881,80.1163267 780.482757,80.3596365 C783.019402,80.9034381 783.673554,82.4539133 782.24077,84.4170569 C779.387124,88.3263666 776.49951,92.2152617 773.62582,96.1125934 C772.797291,97.2362348 771.979311,98.3664381 771.12884,99.4766433 C770.967966,99.686623 770.678603,99.957951 770.445362,99.9605549 C767.363538,99.9927393 764.281081,99.981907 761.053257,99.981907 C761.307491,99.6117344 761.476805,99.3492598 761.662997,99.0968883 C764.732478,94.9378111 767.804492,90.7800879 770.875239,86.6216355 C771.034004,86.4066563 771.203001,86.19626 771.342566,85.9713859 C771.931735,85.0221026 771.615683,84.3308152 770.418673,84.2952978 C767.519243,84.2093686 764.615594,84.2144723 761.714582,84.2456151 C761.416675,84.248844 761.050725,84.6303696 760.840798,84.9116966 C757.283419,89.674778 753.734163,94.4430672 750.218875,99.2314587 C749.799441,99.8029659 749.356061,100.010238 748.603591,99.9996136 C745.771571,99.9597216 742.938285,99.9836776 739.914903,99.9836776 C740.168399,99.6163173 740.334864,99.3599879 740.517469,99.1130326 C743.590538,94.9561426 746.666454,90.800815 749.738467,86.6430918 C749.967383,86.3333301 750.196194,86.0194021 750.378905,85.6867259 C750.722385,85.0619946 750.452644,84.6127672 749.773807,84.3926843 C749.393089,84.2692587 748.962789,84.2255129 748.554432,84.2230132 C745.970739,84.2071814 743.386306,84.1874958 740.803562,84.240199 C740.429595,84.2480107 739.939799,84.5619387 739.714997,84.8622222 C736.119747,89.671445 732.548759,94.4955621 729.004778,99.3356153 C728.641044,99.8322339 728.263279,100.003051 727.620521,99.9964889 C724.726366,99.9670126 721.831578,99.9835735 718.74026,99.9835735 Z M623,99.8938687 C625.470772,96.5578851 627.896904,93.2820703 630.323142,90.0064641 C631.598884,88.283778 632.850508,86.5463886 634.16539,84.8483124 C634.541978,84.3619559 634.52738,84.0371274 634.153754,83.5657872 C633.270467,82.4516723 632.459429,81.2915704 631.511931,80.0041442 C631.976001,80.0041442 632.24818,80.0041442 632.520466,80.0041442 C641.607221,80.0042484 650.694082,79.9863125 659.78052,80.02427 C661.107885,80.029901 662.474918,80.1676533 663.751083,80.482054 C665.846115,80.9983384 666.383598,82.3413453 665.249711,83.9916619 C664.29301,85.3844098 663.282042,86.7520264 662.208028,88.0735519 C661.23419,89.271507 659.713454,89.7235556 658.211653,90.152663 C657.878543,90.2478695 657.530305,90.3004261 657.16271,90.3783223 C657.731928,90.7296377 658.328015,91.0239125 658.821915,91.420902 C659.478827,91.9487613 659.751113,92.6714135 659.223467,93.3590281 C658.101745,94.8203914 657.00266,96.3181481 655.681219,97.6269515 C654.089503,99.2032301 651.927723,99.954559 649.576168,99.9675938 C640.809829,100.016188 632.042961,99.9951235 623.276411,99.997209 C623.221933,99.9971047 623.167454,99.9580002 623,99.8938687 Z M636.193673,95.2931916 C639.674355,95.2931916 642.930566,95.3084163 646.186353,95.2867263 C647.841962,95.2759856 648.89207,94.4236105 649.614885,93.1577699 C650.032516,92.4265669 649.817142,91.9338495 648.9292,91.7436449 C648.621054,91.6775321 648.295137,91.6550079 647.977153,91.6541737 C645.163538,91.6465613 642.349923,91.6402003 639.536414,91.6601176 C639.256301,91.6622031 638.863846,91.767629 638.717231,91.9504298 C637.881334,92.9929051 637.104358,94.0734422 636.193673,95.2931916 Z M642.093717,87.3921941 C645.535048,87.3921941 648.792845,87.4327586 652.047258,87.3590334 C652.722153,87.3438087 653.517323,87.0335793 654.015667,86.622825 C654.502374,86.2216644 655.004526,85.4732553 654.91662,84.9579094 C654.789046,84.2104388 653.783685,84.2441209 653.062986,84.2361957 C650.377474,84.2072062 647.691116,84.2096046 645.005393,84.2304604 C644.735434,84.2326502 644.367521,84.3759293 644.215405,84.564674 C643.506977,85.4429102 642.858633,86.3602509 642.093717,87.3921941 Z M693.70471,90.3837435 C694.283617,90.7482571 694.902861,91.0569884 695.40787,91.4766586 C696.063534,92.0216565 696.23187,92.7459917 695.717862,93.4321656 C694.755593,94.7172428 693.814287,96.0304718 692.694693,97.2012735 C690.96263,99.0125807 688.654837,99.9559786 686.006771,99.970263 C677.264936,100.017287 668.522784,99.9941399 659.780737,99.9953911 C659.724837,99.9953911 659.668725,99.9603578 659.532468,99.9148978 C659.714461,99.6429724 659.876657,99.3764687 660.063203,99.1245623 C663.590851,94.3637814 667.111936,89.5988298 670.665205,84.8532717 C671.028557,84.3681225 671.04285,84.0474006 670.664041,83.5716353 C669.777788,82.4578669 668.96681,81.296032 668.01534,80.0043861 C668.505844,80.0043861 668.808849,80.0043861 669.11196,80.0043861 C678.142296,80.0043861 687.172843,79.9860353 696.202861,80.0244051 C697.563631,80.0301397 698.964421,80.162766 700.273314,80.4802556 C702.374234,80.9900116 702.917145,82.3377526 701.785481,83.9851538 C700.828824,85.378042 699.815525,86.7445508 698.74209,88.0670595 C697.768705,89.2665344 696.247539,89.7188399 694.745218,90.1500836 C694.395206,90.2507002 694.030795,90.3114872 693.70471,90.3837435 Z M672.724518,95.2585913 C676.261801,95.2585913 679.609785,95.2809042 682.957028,95.2483733 C684.469936,95.2336718 685.386468,94.3820279 686.070294,93.2541837 C686.585255,92.4048337 686.346725,91.885381 685.287796,91.716783 C685.005436,91.6717401 684.714817,91.6518254 684.427905,91.651304 C681.644006,91.6456737 678.859895,91.636394 676.076207,91.661105 C675.773732,91.6638159 675.35702,91.7976933 675.192284,92.0006991 C674.366484,93.0185428 673.606959,94.0795525 672.724518,95.2585913 Z M678.691876,87.3675396 C682.12424,87.3675396 685.472436,87.4050753 688.818726,87.3478333 C690.039957,87.3268759 690.842042,86.59128 691.391199,85.6377683 C691.711461,85.0813012 691.547148,84.668304 690.92494,84.465194 C690.483666,84.3213071 689.994221,84.242065 689.524256,84.2335152 C687.892771,84.2036951 686.260334,84.2083871 684.62832,84.2176668 C683.416194,84.2245483 681.96088,83.8935041 681.057158,84.3784448 C680.038248,84.9254237 679.515559,86.2183208 678.77795,87.1871596 C678.760481,87.2097853 678.752753,87.2384584 678.691876,87.3675396 Z M817,80.0524532 C815.976076,81.4281497 815.052424,82.7225304 814.049184,83.9638474 C813.885705,84.1659902 813.369333,84.1989335 813.015495,84.200393 C809.235944,84.2163434 805.456287,84.2066481 801.67663,84.2141541 C801.010534,84.2155094 800.342442,84.2426147 799.679285,84.2964082 C798.584909,84.3847088 797.614218,84.7801329 796.992745,85.6018395 C794.611114,88.7524098 792.275891,91.9318576 789.76795,95.3095909 C790.307841,95.3095909 790.628814,95.3095909 790.950103,95.3095909 C794.920223,95.3095909 798.890448,95.3214755 802.860568,95.297602 C803.494011,95.2937447 803.903392,95.4363601 804.252609,95.9451051 C805.156522,97.2610658 806.128998,98.5385579 807.139483,99.9208222 C806.830163,99.951472 806.601481,99.9940065 806.37259,99.994215 C798.84509,99.9974468 791.317485,100.011938 783.790195,99.9775348 C782.857618,99.9731563 781.879893,99.8209498 781.004644,99.5333212 C779.328063,98.982563 778.812531,97.7449991 779.509496,96.266094 C779.68253,95.8987134 779.904597,95.5442599 780.148609,95.2107609 C782.846069,91.5204831 785.543319,87.829684 788.260938,84.1516035 C789.500104,82.4746215 790.983912,81.0188602 793.197549,80.4105554 C794.037414,80.1798479 794.939122,80.0267032 795.813742,80.0226374 C802.67399,79.990111 809.534658,80.0020999 816.395116,80.0024127 C816.540746,80.0024127 816.686901,80.0258691 817,80.0524532 Z M722.519481,86.2952239 C721.487198,87.9693283 720.585824,89.4574074 719.647842,90.9194255 C719.531277,91.1009833 719.220543,91.2356314 718.999508,91.236376 C713.109695,91.2533776 707.219668,91.2496546 701.103896,91.2496546 C701.812172,90.1070691 702.542605,89.156838 703.032415,88.0837482 C703.719926,86.5768061 704.728981,86.2200195 706.262098,86.2519131 C711.59852,86.3637269 716.938047,86.2952239 722.519481,86.2952239 Z" id="Combined-Shape"></path>
        </g>
    </g>
</svg>
